X: 42470
T: Wexford
R: jig
M: 6/8
K: Eminor
|:B,EE EFG|FEF DEF|GFE FED|B,ED ^CB,A,|
B,EE EFG|FEF DEF|GFE FED|B,ED EEE:|
|:eee edB|ddd dBA|eee dBA|Bed eef|
gfe dcB|ABG FED|GFE FED|B,ED EEE:|

